SQLiteStudio3/guiSQLiteStudio/img/minus.svg

<?xml version="1.0" encoding="UTF-8" standalone="no"?>
<svg
   xmlns:ooo="http://xml.openoffice.org/svg/export"
   xmlns:dc="http://purl.org/dc/elements/1.1/"
   xmlns:cc="http://creativecommons.org/ns#"
   xmlns:rdf="http://www.w3.org/1999/02/22-rdf-syntax-ns#"
   xmlns:svg="http://www.w3.org/2000/svg"
   xmlns="http://www.w3.org/2000/svg"
   xmlns:sodipodi="http://sodipodi.sourceforge.net/DTD/sodipodi-0.dtd"
   xmlns:inkscape="http://www.inkscape.org/namespaces/inkscape"
   version="1.2"
   width="20mm"
   height="20mm"
   viewBox="0 0 2000 2000"
   preserveAspectRatio="xMidYMid"
   fill-rule="evenodd"
   stroke-width="28.222"
   stroke-linejoin="round"
   xml:space="preserve"
   id="svg84"
   sodipodi:docname="minus.svg"
   inkscape:version="1.0 (4035a4fb49, 2020-05-01)"><metadata
   id="metadata88"><rdf:RDF><cc:Work
       rdf:about=""><dc:format>image/svg+xml</dc:format><dc:type
         rdf:resource="http://purl.org/dc/dcmitype/StillImage" /></cc:Work></rdf:RDF></metadata><sodipodi:namedview
   pagecolor="#ffffff"
   bordercolor="#666666"
   borderopacity="1"
   objecttolerance="10"
   gridtolerance="10"
   guidetolerance="10"
   inkscape:pageopacity="0"
   inkscape:pageshadow="2"
   inkscape:window-width="3440"
   inkscape:window-height="1377"
   id="namedview86"
   showgrid="false"
   inkscape:zoom="13.335"
   inkscape:cx="37.795276"
   inkscape:cy="37.795276"
   inkscape:window-x="-8"
   inkscape:window-y="-8"
   inkscape:window-maximized="1"
   inkscape:current-layer="svg84" />
 <defs
   class="ClipPathGroup"
   id="defs8">
  <clipPath
   id="presentation_clip_path"
   clipPathUnits="userSpaceOnUse">
   <rect
   x="0"
   y="0"
   width="2000"
   height="2000"
   id="rect2" />
  </clipPath>
  <clipPath
   id="presentation_clip_path_shrink"
   clipPathUnits="userSpaceOnUse">
   <rect
   x="2"
   y="2"
   width="1996"
   height="1996"
   id="rect5" />
  </clipPath>
 </defs>
 <defs
   class="TextShapeIndex"
   id="defs12">
  <g
   ooo:slide="id1"
   ooo:id-list="id3 id4"
   id="g10" />
 </defs>
 <defs
   class="EmbeddedBulletChars"
   id="defs44">
  <g
   id="bullet-char-template-57356"
   transform="scale(0.00048828125,-0.00048828125)">
   <path
   d="M 580,1141 L 1163,571 580,0 -4,571 580,1141 Z"
   id="path14" />
  </g>
  <g
   id="bullet-char-template-57354"
   transform="scale(0.00048828125,-0.00048828125)">
   <path
   d="M 8,1128 L 1137,1128 1137,0 8,0 8,1128 Z"
   id="path17" />
  </g>
  <g
   id="bullet-char-template-10146"
   transform="scale(0.00048828125,-0.00048828125)">
   <path
   d="M 174,0 L 602,739 174,1481 1456,739 174,0 Z M 1358,739 L 309,1346 659,739 1358,739 Z"
   id="path20" />
  </g>
  <g
   id="bullet-char-template-10132"
   transform="scale(0.00048828125,-0.00048828125)">
   <path
   d="M 2015,739 L 1276,0 717,0 1260,543 174,543 174,936 1260,936 717,1481 1274,1481 2015,739 Z"
   id="path23" />
  </g>
  <g
   id="bullet-char-template-10007"
   transform="scale(0.00048828125,-0.00048828125)">
   <path
   d="M 0,-2 C -7,14 -16,27 -25,37 L 356,567 C 262,823 215,952 215,954 215,979 228,992 255,992 264,992 276,990 289,987 310,991 331,999 354,1012 L 381,999 492,748 772,1049 836,1024 860,1049 C 881,1039 901,1025 922,1006 886,937 835,863 770,784 769,783 710,716 594,584 L 774,223 C 774,196 753,168 711,139 L 727,119 C 717,90 699,76 672,76 641,76 570,178 457,381 L 164,-76 C 142,-110 111,-127 72,-127 30,-127 9,-110 8,-76 1,-67 -2,-52 -2,-32 -2,-23 -1,-13 0,-2 Z"
   id="path26" />
  </g>
  <g
   id="bullet-char-template-10004"
   transform="scale(0.00048828125,-0.00048828125)">
   <path
   d="M 285,-33 C 182,-33 111,30 74,156 52,228 41,333 41,471 41,549 55,616 82,672 116,743 169,778 240,778 293,778 328,747 346,684 L 369,508 C 377,444 397,411 428,410 L 1163,1116 C 1174,1127 1196,1133 1229,1133 1271,1133 1292,1118 1292,1087 L 1292,965 C 1292,929 1282,901 1262,881 L 442,47 C 390,-6 338,-33 285,-33 Z"
   id="path29" />
  </g>
  <g
   id="bullet-char-template-9679"
   transform="scale(0.00048828125,-0.00048828125)">
   <path
   d="M 813,0 C 632,0 489,54 383,161 276,268 223,411 223,592 223,773 276,916 383,1023 489,1130 632,1184 813,1184 992,1184 1136,1130 1245,1023 1353,916 1407,772 1407,592 1407,412 1353,268 1245,161 1136,54 992,0 813,0 Z"
   id="path32" />
  </g>
  <g
   id="bullet-char-template-8226"
   transform="scale(0.00048828125,-0.00048828125)">
   <path
   d="M 346,457 C 273,457 209,483 155,535 101,586 74,649 74,723 74,796 101,859 155,911 209,963 273,989 346,989 419,989 480,963 531,910 582,859 608,796 608,723 608,648 583,586 532,535 482,483 420,457 346,457 Z"
   id="path35" />
  </g>
  <g
   id="bullet-char-template-8211"
   transform="scale(0.00048828125,-0.00048828125)">
   <path
   d="M -4,459 L 1135,459 1135,606 -4,606 -4,459 Z"
   id="path38" />
  </g>
  <g
   id="bullet-char-template-61548"
   transform="scale(0.00048828125,-0.00048828125)">
   <path
   d="M 173,740 C 173,903 231,1043 346,1159 462,1274 601,1332 765,1332 928,1332 1067,1274 1183,1159 1299,1043 1357,903 1357,740 1357,577 1299,437 1183,322 1067,206 928,148 765,148 601,148 462,206 346,322 231,437 173,577 173,740 Z"
   id="path41" />
  </g>
 </defs>
 <g
   id="g49">
  <g
   id="id2"
   class="Master_Slide">
   <g
   id="bg-id2"
   class="Background" />
   <g
   id="bo-id2"
   class="BackgroundObjects" />
  </g>
 </g>
 <g
   class="SlideGroup"
   id="g82"
   transform="matrix(1.8268844,0,0,1.8387536,-1581.8299,-1612.0843)">
  <g
   id="g80">
   <g
   id="container-id1">
    <g
   id="id1"
   class="Slide"
   clip-path="url(#presentation_clip_path)">
     <g
   class="Page"
   id="g76">
      <g
   class="com.sun.star.drawing.CustomShape"
   id="g67">
       <g
   id="id3">
        <rect
   class="BoundingBox"
   stroke="none"
   fill="none"
   x="910"
   y="919"
   width="1003"
   height="1003"
   id="rect51" />
        <g
   id="g62">
         <defs
   id="defs58">
          <linearGradient
   id="gradient1"
   x1="1086"
   y1="857"
   x2="1735"
   y2="1982"
   gradientUnits="userSpaceOnUse">
           <stop
   offset="0"
   style="stop-color:rgb(255,109,109)"
   id="stop53" />
           <stop
   offset="1"
   style="stop-color:rgb(241,13,12)"
   id="stop55" />
          </linearGradient>
         </defs>
         <path
   style="fill:url(#gradient1)"
   d="m 1886,1420 -1,31 -3,31 -5,30 -7,31 -9,29 -11,29 -13,29 -15,27 -16,27 -18,25 -20,24 -21,23 -23,21 -24,20 -25,18 -27,16 -27,15 -29,13 -29,11 -29,9 -31,7 -30,5 -31,3 -31,1 -32,-1 -31,-3 -30,-5 -31,-7 -29,-9 -29,-11 -29,-13 -27,-15 -27,-16 -25,-18 -24,-20 -23,-21 -21,-23 -20,-24 -18,-25 -16,-27 -15,-27 -13,-29 -11,-29 -9,-29 -7,-31 -5,-30 -3,-31 -1,-31 1,-32 3,-31 5,-30 7,-31 9,-29 11,-29 13,-29 15,-27 16,-27 18,-25 20,-24 21,-23 23,-21 24,-20 25,-18 27,-16 27,-15 29,-13 29,-11 29,-9 31,-7 30,-5 31,-3 31,-1 32,1 31,3 30,5 31,7 29,9 29,11 29,13 27,15 27,16 25,18 24,20 23,21 21,23 20,24 18,25 16,27 15,27 13,29 11,29 9,29 7,31 5,30 3,31 1,31 z"
   id="path60" />
        </g>
        <path
   fill="none"
   stroke="#8d281e"
   stroke-width="50"
   stroke-linejoin="round"
   d="m 1886,1420 c 0,83 -22,165 -64,237 -41,73 -101,133 -174,174 -72,42 -154,64 -237,64 -84,0 -166,-22 -238,-64 -73,-41 -133,-101 -174,-174 -42,-72 -64,-154 -64,-237 0,-84 22,-166 64,-238 41,-73 101,-133 174,-174 72,-42 154,-64 237,-64 84,0 166,22 238,64 73,41 133,101 174,174 42,72 64,154 64,237 z"
   id="path64" />
       </g>
      </g>
      <g
   class="com.sun.star.drawing.CustomShape"
   id="g74">
       <g
   id="id4">
        <rect
   class="BoundingBox"
   stroke="none"
   fill="none"
   x="1088"
   y="1330"
   width="651"
   height="185"
   id="rect69" />
        <path
   fill="#eeeeee"
   stroke="none"
   d="m 1088,1330 h 650 v 0 0 183 0 0 h -650 v 0 0 -183 0 0 z"
   id="path71" />
       </g>
      </g>
     </g>
    </g>
   </g>
  </g>
 </g>
</svg>

<?xml version="1.0" encoding="UTF-8"?>
<!DOCTYPE svg PUBLIC "-//W3C//DTD SVG 1.1//EN" "http://www.w3.org/Graphics/SVG/1.1/DTD/svg11.dtd">
<svg version="1.2" width="20mm" height="20mm" viewBox="0 0 2000 2000" preserveAspectRatio="xMidYMid" fill-rule="evenodd" stroke-width="28.222" stroke-linejoin="round" xmlns="http://www.w3.org/2000/svg" xmlns:ooo="http://xml.openoffice.org/svg/export" xmlns:xlink="http://www.w3.org/1999/xlink" xmlns:presentation="http://sun.com/xmlns/staroffice/presentation" xmlns:smil="http://www.w3.org/2001/SMIL20/" xmlns:anim="urn:oasis:names:tc:opendocument:xmlns:animation:1.0" xmlns:svg="urn:oasis:names:tc:opendocument:xmlns:svg-compatible:1.0" xml:space="preserve">
 <defs class="ClipPathGroup">
  <clipPath id="presentation_clip_path" clipPathUnits="userSpaceOnUse">
   <rect x="0" y="0" width="2000" height="2000"/>
  </clipPath>
  <clipPath id="presentation_clip_path_shrink" clipPathUnits="userSpaceOnUse">
   <rect x="2" y="2" width="1996" height="1996"/>
  </clipPath>
 </defs>
 <defs class="TextShapeIndex">
  <g ooo:slide="id1" ooo:id-list="id3 id4"/>
 </defs>
 <defs class="EmbeddedBulletChars">
  <g id="bullet-char-template-57356" transform="scale(0.00048828125,-0.00048828125)">
   <path d="M 580,1141 L 1163,571 580,0 -4,571 580,1141 Z"/>
  </g>
  <g id="bullet-char-template-57354" transform="scale(0.00048828125,-0.00048828125)">
   <path d="M 8,1128 L 1137,1128 1137,0 8,0 8,1128 Z"/>
  </g>
  <g id="bullet-char-template-10146" transform="scale(0.00048828125,-0.00048828125)">
   <path d="M 174,0 L 602,739 174,1481 1456,739 174,0 Z M 1358,739 L 309,1346 659,739 1358,739 Z"/>
  </g>
  <g id="bullet-char-template-10132" transform="scale(0.00048828125,-0.00048828125)">
   <path d="M 2015,739 L 1276,0 717,0 1260,543 174,543 174,936 1260,936 717,1481 1274,1481 2015,739 Z"/>
  </g>
  <g id="bullet-char-template-10007" transform="scale(0.00048828125,-0.00048828125)">
   <path d="M 0,-2 C -7,14 -16,27 -25,37 L 356,567 C 262,823 215,952 215,954 215,979 228,992 255,992 264,992 276,990 289,987 310,991 331,999 354,1012 L 381,999 492,748 772,1049 836,1024 860,1049 C 881,1039 901,1025 922,1006 886,937 835,863 770,784 769,783 710,716 594,584 L 774,223 C 774,196 753,168 711,139 L 727,119 C 717,90 699,76 672,76 641,76 570,178 457,381 L 164,-76 C 142,-110 111,-127 72,-127 30,-127 9,-110 8,-76 1,-67 -2,-52 -2,-32 -2,-23 -1,-13 0,-2 Z"/>
  </g>
  <g id="bullet-char-template-10004" transform="scale(0.00048828125,-0.00048828125)">
   <path d="M 285,-33 C 182,-33 111,30 74,156 52,228 41,333 41,471 41,549 55,616 82,672 116,743 169,778 240,778 293,778 328,747 346,684 L 369,508 C 377,444 397,411 428,410 L 1163,1116 C 1174,1127 1196,1133 1229,1133 1271,1133 1292,1118 1292,1087 L 1292,965 C 1292,929 1282,901 1262,881 L 442,47 C 390,-6 338,-33 285,-33 Z"/>
  </g>
  <g id="bullet-char-template-9679" transform="scale(0.00048828125,-0.00048828125)">
   <path d="M 813,0 C 632,0 489,54 383,161 276,268 223,411 223,592 223,773 276,916 383,1023 489,1130 632,1184 813,1184 992,1184 1136,1130 1245,1023 1353,916 1407,772 1407,592 1407,412 1353,268 1245,161 1136,54 992,0 813,0 Z"/>
  </g>
  <g id="bullet-char-template-8226" transform="scale(0.00048828125,-0.00048828125)">
   <path d="M 346,457 C 273,457 209,483 155,535 101,586 74,649 74,723 74,796 101,859 155,911 209,963 273,989 346,989 419,989 480,963 531,910 582,859 608,796 608,723 608,648 583,586 532,535 482,483 420,457 346,457 Z"/>
  </g>
  <g id="bullet-char-template-8211" transform="scale(0.00048828125,-0.00048828125)">
   <path d="M -4,459 L 1135,459 1135,606 -4,606 -4,459 Z"/>
  </g>
  <g id="bullet-char-template-61548" transform="scale(0.00048828125,-0.00048828125)">
   <path d="M 173,740 C 173,903 231,1043 346,1159 462,1274 601,1332 765,1332 928,1332 1067,1274 1183,1159 1299,1043 1357,903 1357,740 1357,577 1299,437 1183,322 1067,206 928,148 765,148 601,148 462,206 346,322 231,437 173,577 173,740 Z"/>
  </g>
 </defs>
 <g>
  <g id="id2" class="Master_Slide">
   <g id="bg-id2" class="Background"/>
   <g id="bo-id2" class="BackgroundObjects"/>
  </g>
 </g>
 <g class="SlideGroup">
  <g>
   <g id="container-id1">
    <g id="id1" class="Slide" clip-path="url(#presentation_clip_path)">
     <g class="Page">
      <g class="com.sun.star.drawing.CustomShape">
       <g id="id3">
        <rect class="BoundingBox" stroke="none" fill="none" x="910" y="919" width="1003" height="1003"/>
        <g>
         <defs>
          <linearGradient id="gradient1" x1="1086" y1="857" x2="1735" y2="1982" gradientUnits="userSpaceOnUse">
           <stop offset="0" style="stop-color:rgb(255,109,109)"/>
           <stop offset="1" style="stop-color:rgb(241,13,12)"/>
          </linearGradient>
         </defs>
         <path style="fill:url(#gradient1)" d="M 1886,1420 L 1885,1451 1882,1482 1877,1512 1870,1543 1861,1572 1850,1601 1837,1630 1822,1657 1806,1684 1788,1709 1768,1733 1747,1756 1724,1777 1700,1797 1675,1815 1648,1831 1621,1846 1592,1859 1563,1870 1534,1879 1503,1886 1473,1891 1442,1894 1411,1895 1379,1894 1348,1891 1318,1886 1287,1879 1258,1870 1229,1859 1200,1846 1173,1831 1146,1815 1121,1797 1097,1777 1074,1756 1053,1733 1033,1709 1015,1684 999,1657 984,1630 971,1601 960,1572 951,1543 944,1512 939,1482 936,1451 935,1420 936,1388 939,1357 944,1327 951,1296 960,1267 971,1238 984,1209 999,1182 1015,1155 1033,1130 1053,1106 1074,1083 1097,1062 1121,1042 1146,1024 1173,1008 1200,993 1229,980 1258,969 1287,960 1318,953 1348,948 1379,945 1410,944 1442,945 1473,948 1503,953 1534,960 1563,969 1592,980 1621,993 1648,1008 1675,1024 1700,1042 1724,1062 1747,1083 1768,1106 1788,1130 1806,1155 1822,1182 1837,1209 1850,1238 1861,1267 1870,1296 1877,1327 1882,1357 1885,1388 1886,1419 1886,1420 Z"/>
        </g>
        <path fill="none" stroke="rgb(141,40,30)" stroke-width="50" stroke-linejoin="round" d="M 1886,1420 C 1886,1503 1864,1585 1822,1657 1781,1730 1721,1790 1648,1831 1576,1873 1494,1895 1411,1895 1327,1895 1245,1873 1173,1831 1100,1790 1040,1730 999,1657 957,1585 935,1503 935,1420 935,1336 957,1254 999,1182 1040,1109 1100,1049 1173,1008 1245,966 1327,944 1410,944 1494,944 1576,966 1648,1008 1721,1049 1781,1109 1822,1182 1864,1254 1886,1336 1886,1419 L 1886,1420 Z"/>
       </g>
      </g>
      <g class="com.sun.star.drawing.CustomShape">
       <g id="id4">
        <rect class="BoundingBox" stroke="none" fill="none" x="1088" y="1330" width="651" height="185"/>
        <path fill="rgb(238,238,238)" stroke="none" d="M 1088,1330 L 1738,1330 1738,1330 1738,1330 1738,1513 1738,1513 1738,1513 1088,1513 1088,1513 1088,1513 1088,1330 1088,1330 1088,1330 1088,1330 Z"/>
       </g>
      </g>
     </g>
    </g>
   </g>
  </g>
 </g>
</svg>
